X:6
T:O'Carolan's Ramble to Cashel
R:carolan
C:Turlough O'Carolan (1670-1738)
H:Another version "O'Carolan's Quarrel with the Landlady" #10
Z:id:hn-carolan-6
M:3/4
L:1/8
Q:1/4=160
K:G
BA | G4 G2 | G2 g2 a2 | ba gf ed | g2 f2 g2 |
e6 | e2 f2 g2 | ed cB AG | A4 BA |
G4 G2 | G2 g2 a2 | ba gf ed | g4 f2 |
e2 fe dc | d2 ed BA | B2 E2 E2 | g4 f2 |
e2 fe dc | d2 ed BA | B2 E2 E2 | E4 :|
|: ga | b6 | ba gf e2 | d2 f2 g2 | a2 b2 c'2 |
ba gf ed | ef g4 | ed cB AG | A4 BA |
G4 G2 | G2 g2 a2 | ba gf ed | g4 f2 |
e2 fe dc | d2 ed BA | B2 E2 E2 | g4 f2 |
e2 fe dc | d2 ed BA | B2 E2 E2 | E4 :|

